X:348
T: NIMM SIE BEI DER SCHNEEWEISSEN HAND
N: E0975
O: Europa, Mitteleuropa, Deutschland, Rheinland, Bonn, Poppelsdorf
R: Tanz - Lied, Reigen, Spiel, Johannis - Fest
M: 2/4
L: 1/8
K: A
 | eaaa | afe
e | fedc | BBB2 |
Acee | fff2 |
Acee | fff2 |
ddcc | B2A2

